src/icons/caddy.svg

<svg viewBox="0 0 24 24" xmlns="http://www.w3.org/2000/svg">
  <path
    d="M22.453 14.346C22.453 8.573 17.773 3.893 12 3.893C6.227 3.893 1.547 8.573 1.547 14.346C1.54442 16.1516 2.01173 17.9267 2.903 19.497V18.843C2.90335 18.2131 3.13591 17.6055 3.55618 17.1363C3.97646 16.6671 4.55495 16.3694 5.181 16.3V12.902C5.181 8.864 7.71 6.714 11.9 6.768C13.937 6.795 15.574 7.288 16.725 8.269C17.957 9.319 18.596 10.898 18.596 12.966L18.59 16.321C19.1861 16.4218 19.7273 16.7304 20.1177 17.192C20.5081 17.6536 20.7225 18.2384 20.723 18.843V20.108C21.8545 18.3996 22.4563 16.3951 22.453 14.346Z"
    fill="#4FC3F7"
  />
  <path
    d="M15.52 16.284V13.98C15.5151 13.8901 15.5117 13.8001 15.51 13.71C15.5082 13.4573 15.4958 13.2047 15.473 12.953C15.4479 12.66 15.3936 12.3702 15.311 12.088C15.138 11.52 14.842 11.064 14.383 10.728C13.819 10.317 13.013 10.09 11.921 10.09C10.819 10.09 10.001 10.319 9.425 10.734C8.954 11.073 8.649 11.533 8.475 12.101C8.38436 12.4047 8.32833 12.7177 8.308 13.034C8.2903 13.2939 8.28596 13.5546 8.295 13.815C8.29649 13.8703 8.29782 13.9257 8.299 13.981V16.285L15.52 16.284Z"
    fill="#4FC3F7"
  />
</svg>

<svg viewBox="0 0 24 24" xmlns="http://www.w3.org/2000/svg">
  <g fill="#4fc3f7" fill-rule="evenodd">
    <path
      d="M22.453 14.346c0-5.773-4.68-10.453-10.453-10.453S1.547 8.573 1.547 14.346a10.405 10.405 0 0 0 1.356 5.151v-.654A2.56 2.56 0 0 1 5.181 16.3v-3.398c0-4.038 2.529-6.188 6.719-6.134 2.037.027 3.674.52 4.825 1.501 1.232 1.05 1.871 2.629 1.871 4.697l-.006 3.355a2.56 2.56 0 0 1 2.133 2.522v1.265a10.404 10.404 0 0 0 1.73-5.762z"
    />
    <path
      d="M15.52 16.284V13.98a7.545 7.545 0 0 1-.01-.27 9.128 9.128 0 0 0-.037-.757 4.423 4.423 0 0 0-.162-.865c-.173-.568-.469-1.024-.928-1.36-.564-.411-1.37-.638-2.462-.638-1.102 0-1.92.229-2.496.644-.471.339-.776.799-.95 1.367a4.206 4.206 0 0 0-.167.933 7.608 7.608 0 0 0-.013.781 29.77 29.77 0 0 1 .004.166v2.304z"
    />
  </g>
</svg>
